X:18
T:Dobbin's Flowery Vale
S:Bernie Waugh
R:Reel
M:4/4
L:1/8
K:Bb mixolydian
|:\
"Cm"G2EG CGEF|"F"F2DF "Bb"B,FDF|"Cm"G2EG CGEF|"Gm"(3GAB cd edcB|
"Ab"G2EG BGEF|"Gm"F2DF B,FDF|"Fm"GFED CDEF|1\
"Gm"(3GAB cB "Bb"ecBA:|2\
"Gm"(3GAB cB "Bb"(3GAB cd||
|:\
"Cm"e2~ed edcB|"Bb"GBFA GBcd|"Ab"e2~ed egfe|"Gm"dcBA GBcd|
"Fm"eg`fd edcB|"Eb"G2FG "Gm"EFDE|"Ab"CB,CD E2EF|1\
"Bb"FEBG edcd:|2\
"Bb"FEBG edcB|]

